X:1
T:Sonora, 87.87 D
T:Sonora, 87.87 D
T:Ada Rose Gibbs (1864-1905)
T:Public Domain Courtesy of the Cyber Hymnal™
C:Ada Rose Gibbs (1864-1905)
Z:Public Domain
Z:Courtesy of the Cyber Hymnal™
%%score ( 1 2 ) ( 3 4 )
L:1/8
Q:1/4=107
M:4/4
K:Eb
V:1 treble 
V:2 treble 
V:3 bass 
V:4 bass 
V:1
 (GA) (Bc) [EB]2 E2 | [DF]2 [DA]2 (GF) [B,E]2 | (GA) (Bc) [EB]2 ([DA][EG]) | [DF]2 (B=A) [DB]4 | %4
 [Fc]2 (B_A) [EB]2 (AG) | [DA]2 (GF) (GA) [EB]2 | [EA]2 [Ec]2 (BG) (EF) | [EG]2 [DF]2 E4 | %8
 B3 F B2 F2 | [FB]2 [Fc]2 [FB]2 [FB]2 | [FA]3 [FA] ([EG]2 [EG]2) | [Ec]3 [Ec] [EB]4 | %12
 E3 E [DF]2 [DF]2 | [EG]3 [EG] [EA]2 [E=A]2 | [EB]3 [Ec] (d2 e2) | [DG]2 [DF]2 E4 |] %16
V:2
 E2 E2 x E2 x | x4 E2 x2 | E2 E2 x4 | x2 E2 x4 | x2 F2 x E2 x | x2 D2 E2 x2 | x4 E2 E2 | x4 E4 | %8
 B3 F B2 F2 | x8 | x8 | x8 | E3 E x4 | x8 | x4 E4 | x4 E4 |] %16
V:3
 B,2 B,2 [G,B,]2 [E,G,]2 | [B,,B,]2 [B,,B,]2 [E,B,]2 [E,G,]2 | B,2 B,2 [G,B,]2 B,2 | %3
 [F,B,]2 [F,C]2 [B,D]4 | [A,D]2 [A,D]2 [G,E]2 [E,B,]2 | [F,B,]2 [B,,B,]2 B,2 [G,B,]2 | %6
 [A,C]2 A,2 [G,B,]2 [A,C]2 | B,2 [B,,A,]2 [E,G,]4 | B,3 F, B,2 F,2 | %9
 [B,D]2 [=A,E]2 [B,D]2 [B,,D]2 | [D,B,]3 [D,B,] ([E,B,]2 [E,B,]2) | [A,,A,]3 [A,,A,] [E,G,]4 | %12
 [A,C]3 [G,B,] [F,B,]2 [B,,B,]2 | [E,B,]3 [_D,B,] [C,A,]2 [_C,E,]2 | [B,,G,]3 [B,,G,] [B,,G,]4 | %15
 [B,,B,]2 [B,,A,]2 [E,G,]4 |] %16
V:4
 (E,F,) (G,A,) x4 | x8 | (E,F,) (G,A,) x (F,E,) x | x8 | x8 | x4 (E,F,) x2 | x2 A,2 x4 | B,2 x6 | %8
 B,3 F, B,2 F,2 | x8 | x8 | x8 | x8 | x8 | x8 | x8 |] %16

